X:3002
T:Campbell's Farewell to Red Gap
T:Farewell to Redcastle
R:Reel
C:Trad.
O:Ireland
M:2/4
L:1/8
Q:1/4=120
K:A
E|"A"AA/B/ cc/d/|ea e>d|cA AB/c/|"G"dd/B/ =GE|
"A"AA/B/ cc/d/|ea e>d|cB/A/ =G/A/B/G/|A2 A:|
=g/f/|"A"ea a=g/f/|ea e>d|cA AB/c/|"G"dd/B/ =Gg/f/|
"A"ea a=g/f/|ea e>d|cB/A/ =G/A/B/G/|A2 A=g/f/|
"A"ea a=g/f/|ea e>d|cA AB/c/|"G"dd/B/ =GE|
"A"A/B/c/d/ c/d/e/f/|e/f/g/a/ e>d|cB/A/ =G/A/B/G/|A2 A||
